build/category/GovernmentSolid.svg

<svg xmlns="http://www.w3.org/2000/svg" fill="none" viewBox="0 0 24 24" focusable="false"><path d="M0 0H24V24H0z"/><path fill="#74767B" fill-rule="evenodd" d="M12.2686 2.37118L12.4746 1.95919C12.5743 1.75972 12.4293 1.52502 12.2062 1.52502L11.7942 1.52502C11.5712 1.52502 11.4262 1.75972 11.5259 1.95919L11.7319 2.37118C11.8425 2.5923 12.158 2.5923 12.2686 2.37118ZM11.5021 2.79546C11.4448 2.68087 11.3208 2.61416 11.1948 2.63724C10.8588 2.69875 10.5279 2.80345 10.3598 2.97152C9.97717 3.35417 10.3086 4.45085 10.6878 4.92913C10.7372 4.99147 10.8146 5.02206 10.8942 5.02206L13.1063 5.02206C13.1859 5.02206 13.2633 4.99148 13.3127 4.92913C13.6919 4.45085 14.0233 3.35417 13.6407 2.97152C13.4719 2.80276 13.142 2.69788 12.8059 2.63648C12.6799 2.61347 12.5561 2.68018 12.4988 2.79469L12.2686 3.25518C12.158 3.47629 11.8425 3.47629 11.7319 3.25518L11.5021 2.79546ZM8.36095 6.07318C7.37235 6.07318 6.65239 6.54421 6.91147 7.42632C6.92352 7.46732 6.96186 7.49471 7.0046 7.49471L7.84645 7.49471C8.41205 7.49471 9.28789 8.24328 9.53516 9.53761C9.58369 9.91694 9.59971 10.3371 9.60331 10.8099C9.60673 11.259 9.23654 11.6298 8.77953 11.6298C8.32544 11.6298 7.95733 11.2617 7.95733 10.8076L7.95733 10.7174C7.95733 10.316 7.8076 9.929 7.53742 9.63213L4.55875 6.35922C4.30786 6.08354 3.83473 6.0574 3.58529 6.40265C3.05734 7.13338 2.74352 8.12981 2.62588 9.19081C2.50778 10.2559 2.58412 11.4136 2.86161 12.487C3.41079 14.6113 4.80098 16.5427 7.16839 16.5427L8.16383 16.5427C8.40741 16.5427 8.57772 16.3409 8.57772 16.1267C8.57772 15.7678 8.86873 15.4767 9.22772 15.4767C9.5867 15.4767 9.87772 15.7678 9.87772 16.1267C9.87772 16.1405 9.8773 16.154 9.87647 16.1675C9.87469 16.1965 9.87647 16.225 9.88144 16.2524C9.86616 16.543 9.74159 16.8753 9.5437 17.2323C9.33519 17.6084 9.06768 17.9737 8.82474 18.3046L8.81879 18.3127L8.81876 18.3128C8.679 18.5032 8.54301 18.6884 8.44251 18.8479C8.39123 18.9293 8.34333 19.013 8.30736 19.0946C8.27374 19.1709 8.23702 19.2748 8.23702 19.3886C8.23702 19.8125 8.48677 20.1621 8.77883 20.4266C9.07627 20.696 9.46728 20.9238 9.86412 21.1067C10.264 21.291 10.6869 21.4376 11.0612 21.5385C11.4283 21.6375 11.7743 21.6996 12.0137 21.6996C12.2532 21.6996 12.5992 21.6375 12.9662 21.5385C13.3405 21.4376 13.7635 21.291 14.1633 21.1067C14.5602 20.9238 14.9512 20.696 15.2486 20.4266C15.5407 20.1621 15.7904 19.8125 15.7904 19.3886C15.7904 19.273 15.7522 19.168 15.7177 19.0916C15.6807 19.0098 15.6315 18.9259 15.5789 18.8446C15.4758 18.6851 15.3364 18.4998 15.1931 18.3095L15.193 18.3093L15.193 18.3093L15.1869 18.3012C14.9402 17.9735 14.6687 17.6121 14.4557 17.2397C14.2402 16.8628 14.1081 16.5138 14.1025 16.2125L14.1023 16.1997L14.1011 16.1869C14.0993 16.1672 14.0984 16.1471 14.0984 16.1267C14.0984 15.7689 14.3907 15.4767 14.7508 15.4767C15.1109 15.4767 15.4033 15.7689 15.4033 16.1267C15.4033 16.3409 15.5735 16.5427 15.8172 16.5427L16.8591 16.5427C19.2265 16.5427 20.6167 14.6113 21.1658 12.487C21.4433 11.4136 21.5197 10.2559 21.4016 9.19081C21.2839 8.12981 20.9701 7.13338 20.4422 6.40265C20.1927 6.0574 19.7196 6.08354 19.4687 6.35922L16.49 9.63213C16.2198 9.929 16.0701 10.316 16.0701 10.7174L16.0701 10.7865C16.0701 11.2522 15.6926 11.6298 15.2269 11.6298C14.7574 11.6298 14.3795 11.2493 14.3866 10.7916C14.3902 10.5683 14.3969 10.3567 14.4088 10.1554L14.4104 10.1568C14.4109 10.1372 14.4115 10.1177 14.4123 10.0983C14.4201 9.97877 14.4298 9.86294 14.4419 9.75056C14.6285 8.32574 15.5688 7.49471 16.1648 7.49471L17.0066 7.49471C17.0494 7.49471 17.0877 7.46732 17.0998 7.42632C17.3588 6.54421 16.6389 6.07318 15.6503 6.07318C15.602 6.07318 15.5541 6.07442 15.5065 6.07685C15.4844 6.07448 15.4613 6.07327 15.4374 6.07327L12.9344 6.07324C12.7302 6.07324 12.5931 6.27051 12.6892 6.45065C12.7519 6.56813 12.8331 6.70205 12.9343 6.83572C12.9889 6.90777 13.0493 6.97975 13.1159 7.04904L13.1395 7.07324C13.1723 7.10637 13.2065 7.13879 13.2422 7.17022C12.617 7.77914 12.1844 8.51462 12.0068 9.02655L12.0056 9.02986L12.0045 9.02655C11.8273 8.51588 11.3964 7.78277 10.7737 7.17473C10.8112 7.14189 10.8472 7.10795 10.8815 7.07324L10.9051 7.04904C10.9716 6.97975 11.0321 6.90777 11.0867 6.83572C11.1879 6.70205 11.2691 6.56813 11.3318 6.45065C11.4279 6.27051 11.2908 6.07324 11.0866 6.07324L8.58356 6.07327C8.55851 6.07327 8.53446 6.0746 8.51136 6.07719C8.4616 6.07454 8.41146 6.07318 8.36095 6.07318Z"/></svg>

<svg xmlns="http://www.w3.org/2000/svg" fill="none" viewBox="0 0 24 24" focusable="false"><path fill="#74767B" fill-rule="evenodd" d="m12.26 2.37.21-.42c.1-.2-.05-.43-.27-.43h-.41c-.22 0-.37.23-.27.43l.21.42c.11.22.42.22.53 0m-.76.42a.3.3 0 0 0-.31-.16c-.34.06-.67.17-.84.34-.38.38-.05 1.48.33 1.95.05.07.13.1.21.1h2.21c.08 0 .16-.03.21-.1.38-.47.71-1.57.33-1.95-.17-.17-.5-.28-.84-.34a.3.3 0 0 0-.31.16l-.23.46c-.11.22-.42.22-.53 0zM8.36 6.07c-.99 0-1.71.47-1.45 1.35.01.04.05.07.09.07h.84c.57 0 1.44.75 1.69 2.04.05.38.06.8.07 1.27a.826.826 0 0 1-1.65 0v-.09c0-.4-.15-.79-.42-1.08L4.55 6.35c-.25-.27-.72-.3-.97.05-.53.73-.84 1.72-.96 2.79-.12 1.06-.04 2.22.24 3.29.55 2.13 1.94 4.06 4.3 4.06h1c.24 0 .41-.2.41-.42 0-.36.29-.65.65-.65s.65.29.65.65v.04c0 .03 0 .06.01.09-.02.29-.14.62-.34.98-.21.37-.48.74-.72 1.07l-.01.01c-.14.19-.27.37-.37.53-.05.08-.1.17-.14.25-.03.08-.07.18-.07.29 0 .43.25.78.54 1.04.3.27.69.5 1.09.68.4.19.82.33 1.2.43.36.1.71.16.95.16s.58-.06.95-.16c.38-.1.8-.24 1.2-.43.4-.18.79-.41 1.08-.68.3-.26.55-.61.55-1.04a.6.6 0 0 0-.08-.29.9.9 0 0 0-.14-.25c-.1-.16-.24-.35-.38-.54h-.01c-.25-.33-.52-.69-.73-1.07-.21-.37-.35-.72-.35-1.02v-.03c-.01-.02-.01-.04-.01-.06 0-.36.3-.65.66-.65s.65.29.65.65c0 .22.17.42.41.42h1.04c2.37 0 3.76-1.93 4.31-4.06.28-1.07.35-2.23.24-3.29-.12-1.07-.43-2.06-.96-2.79-.25-.35-.73-.32-.98-.05l-2.97 3.28c-.28.29-.42.68-.42 1.08v.07c0 .47-.38.84-.85.84s-.85-.38-.84-.83c.01-.23.01-.44.02-.64h.01v-.06c0-.12.01-.23.03-.34.18-1.43 1.12-2.26 1.72-2.26H17c.04 0 .08-.03.09-.07.26-.88-.46-1.35-1.44-1.35h-2.72c-.2 0-.34.2-.25.38.07.11.15.25.25.38q.075.105.18.21l.02.03c.04.03.07.06.11.1-.63.6-1.06 1.34-1.24 1.85-.18-.51-.61-1.24-1.23-1.85.04-.03.07-.07.11-.1l.02-.03q.105-.105.18-.21c.1-.13.18-.27.25-.38.09-.18-.04-.38-.25-.38H8.36"/></svg>
